archdroid-icon-theme/Archdroid-Amber/mimetypes/scalable/image-x-xcf.svg

<svg fill="#f57900" height="48" viewBox="0 0 48 48" width="48" xmlns="http://www.w3.org/2000/svg"><path d="m10 6c-2.21 0-4 1.79-4 4v28c0 2.21 1.79 4 4 4h28c2.21 0 4-1.79 4-4v-28c0-2.21-1.79-4-4-4zm21.59375 4.222656c.142415 0 .285156.010742.431641.035156.146484.020346.311035.051107.49414.091797l-.152343 1.148438c-.081381-.016276-.171713-.030762-.273438-.042969-.097656-.012207-.204427-.017578-.318359-.017578-.321452 0-.563802.090332-.726563.273438-.158691.183105-.236328.445312-.236328.787109v.769531h1.341797v1.09961h-1.341797v5.503906h-1.484375v-5.503906h-1.007813v-1.09961h1.007813v-.769531c0-.728353.197103-1.2889.591797-1.683594.398763-.394694.957682-.591797 1.673828-.591797zm-6.585938 2.923828c.793458 0 1.435385.231446 1.927735.695313.496419.459798.736979 1.045736.720703 1.757812l-.011719.03711h-1.349609c0-.362142-.119304-.669597-.359375-.921875-.236003-.252279-.545248-.378906-.927735-.378906-.557454 0-.953613.202473-1.185546.609374-.231934.402833-.347657.911133-.347657 1.521485v.212891c0 .622558.115723 1.13623.347657 1.539062.231933.398763.628092.597656 1.185546.597656.362142 0 .665853-.106771.914063-.318359.24821-.215658.373047-.483236.373047-.804688h1.341797l.013672.03711c.020345.618489-.232911 1.150065-.757813 1.597656-.520833.447591-1.148275.671875-1.884766.671875-.972493 0-1.719401-.312826-2.240234-.939453-.516764-.626628-.77539-1.420573-.77539-2.380859v-.212891c0-.956218.258626-1.748373.77539-2.375.520833-.630697 1.267741-.945313 2.240234-.945313zm-9.472656.121094h1.683594l1.203125 2.263672 1.220703-2.263672h1.703125l-2.076172 3.265625 2.136719 3.337891h-1.685547l-1.275391-2.31836-1.27539 2.31836h-1.697266l2.136719-3.337891zm13.464844 10.732422 9 12h-28l7-9 5 6.009766z" fill="#f57900"/></svg>

<svg fill="#f57900" height="48" version="1.1" viewBox="0 0 48 48" width="48" xmlns="http://www.w3.org/2000/svg"><path d="M10 6C7.79 6 6 7.79 6 10L6 38C6 40.21 7.79 42 10 42L38 42C40.21 42 42 40.21 42 38L42 10C42 7.79 40.21 6 38 6L10 6zM31.59375 10.222656C31.736165 10.222656 31.878906 10.233398 32.025391 10.257812 32.171875 10.278158 32.336426 10.308919 32.519531 10.349609L32.367188 11.498047C32.285807 11.481771 32.195475 11.467285 32.09375 11.455078 31.996094 11.442871 31.889323 11.4375 31.775391 11.4375 31.453939 11.4375 31.211589 11.527832 31.048828 11.710938 30.890137 11.894043 30.8125 12.15625 30.8125 12.498047L30.8125 13.267578 32.154297 13.267578 32.154297 14.367188 30.8125 14.367188 30.8125 19.871094 29.328125 19.871094 29.328125 14.367188 28.320312 14.367188 28.320312 13.267578 29.328125 13.267578 29.328125 12.498047C29.328125 11.769694 29.525228 11.209147 29.919922 10.814453 30.318685 10.419759 30.877604 10.222656 31.59375 10.222656zM25.007812 13.146484C25.80127 13.146484 26.443197 13.37793 26.935547 13.841797 27.431966 14.301595 27.672526 14.887533 27.65625 15.599609L27.644531 15.636719 26.294922 15.636719C26.294922 15.274577 26.175618 14.967122 25.935547 14.714844 25.699544 14.462565 25.390299 14.335938 25.007812 14.335938 24.450358 14.335938 24.054199 14.538411 23.822266 14.945312 23.590332 15.348145 23.474609 15.856445 23.474609 16.466797L23.474609 16.679688C23.474609 17.302246 23.590332 17.815918 23.822266 18.21875 24.054199 18.617513 24.450358 18.816406 25.007812 18.816406 25.369954 18.816406 25.673665 18.709635 25.921875 18.498047 26.170085 18.282389 26.294922 18.014811 26.294922 17.693359L27.636719 17.693359 27.650391 17.730469C27.670736 18.348958 27.41748 18.880534 26.892578 19.328125 26.371745 19.775716 25.744303 20 25.007812 20 24.035319 20 23.288411 19.687174 22.767578 19.060547 22.250814 18.433919 21.992188 17.639974 21.992188 16.679688L21.992188 16.466797C21.992188 15.510579 22.250814 14.718424 22.767578 14.091797 23.288411 13.4611 24.035319 13.146484 25.007812 13.146484zM15.535156 13.267578L17.21875 13.267578 18.421875 15.53125 19.642578 13.267578 21.345703 13.267578 19.269531 16.533203 21.40625 19.871094 19.720703 19.871094 18.445312 17.552734 17.169922 19.871094 15.472656 19.871094 17.609375 16.533203 15.535156 13.267578zM29 24L38 36 10 36 17 27 22 33.009766 29 24z"/></svg>
